img/twitter-4.svg

<svg fill="none" height="32" viewBox="0 0 33 32" width="33" xmlns="http://www.w3.org/2000/svg"><path d="m27.9162 10.0727c.0188.266.0188.5332.0188.7992 0 8.1281-6.1864 17.4937-17.4932 17.4937-3.4834 0-6.71953-1.009-9.4418-2.7597.49512.0568.9709.0761 1.48477.0761 2.87402 0 5.52011-.9715 7.63303-2.6273-1.28295-.0235-2.5265-.4471-3.55701-1.2117-1.03051-.7645-1.79652-1.8318-2.19106-3.0528.38399.0606.772.0924 1.16074.095.55195 0 1.10391-.0762 1.61777-.2092-1.39209-.2818-2.64373-1.0367-3.54233-2.1367-.89859-1.0999-1.38873-2.477-1.38716-3.8973v-.0762c.85195.4755 1.80419.7429 2.7791.7805-.84382-.5612-1.53573-1.3224-2.01407-2.2158-.47835-.8935-.72828-1.89131-.72753-2.90472 0-1.14199.30469-2.18906.83789-3.10254 1.54437 1.90078 3.471 3.45575 5.65495 4.56408 2.18391 1.10828 4.57651 1.74528 7.02241 1.86948-.0949-.457-.1524-.9322-.1524-1.408 0-3.38845 2.7411-6.1488 6.1489-6.1488 1.7695 0 3.3691.74238 4.4924 1.9418 1.3769-.26517 2.6973-.76756 3.9023-1.48477-.4586 1.42098-1.4198 2.62582-2.7035 3.38848 1.2375-.1336 2.4369-.47637 3.5408-.95215-.8418 1.22568-1.8843 2.30054-3.0838 3.17934z" fill="#1d9bf0"/></svg>

<svg width="33" height="32" viewBox="0 0 33 32" fill="none" xmlns="http://www.w3.org/2000/svg">
<path d="M27.9162 10.0727C27.935 10.3387 27.935 10.6059 27.935 10.8719C27.935 19 21.7486 28.3656 10.4418 28.3656C6.9584 28.3656 3.72227 27.3566 1 25.6059C1.49512 25.6627 1.9709 25.682 2.48477 25.682C5.35879 25.682 8.00488 24.7105 10.1178 23.0547C8.83485 23.0312 7.5913 22.6076 6.56079 21.843C5.53028 21.0785 4.76427 20.0112 4.36973 18.7902C4.75372 18.8508 5.14173 18.8826 5.53047 18.8852C6.08242 18.8852 6.63438 18.809 7.14824 18.676C5.75615 18.3942 4.50451 17.6393 3.60591 16.5393C2.70732 15.4394 2.21718 14.0623 2.21875 12.642V12.5658C3.0707 13.0413 4.02294 13.3087 4.99785 13.3463C4.15403 12.7851 3.46212 12.0239 2.98378 11.1305C2.50543 10.237 2.2555 9.23919 2.25625 8.22578C2.25625 7.08379 2.56094 6.03672 3.09414 5.12324C4.63851 7.02402 6.56514 8.57899 8.74909 9.68732C10.933 10.7956 13.3256 11.4326 15.7715 11.5568C15.6766 11.0998 15.6191 10.6246 15.6191 10.1488C15.6191 6.76035 18.3602 4 21.768 4C23.5375 4 25.1371 4.74238 26.2604 5.9418C27.6373 5.67663 28.9577 5.17424 30.1627 4.45703C29.7041 5.87801 28.7429 7.08285 27.4592 7.84551C28.6967 7.71191 29.8961 7.36914 31 6.89336C30.1582 8.11904 29.1157 9.1939 27.9162 10.0727Z" fill="#1D9BF0"/>
</svg>
